X:1
T:Wonderful Morning
T:Wonderful Morning
T:Carl Harold Lowden
T:Lizzie Douglas Foulks DeArmond, 1912
T:Public Domain Courtesy of the Cyber Hymnal™
T:Public Domain Courtesy of the Cyber Hymnal™
C:Carl Harold Lowden
Z:Public Domain
Z:Courtesy of the Cyber Hymnal™
%%score ( 1 2 ) ( 3 4 )
L:1/8
Q:1/4=150
M:6/4
K:Ab
V:1 treble 
V:2 treble 
V:3 bass 
V:4 bass 
V:1
 [Ec]2 [=D=B]2 [Ec]2 [F_d]2 [FA]2 [_F_B]2 | [Ec]6 [CA]6 | [DB]2 [C=A]2 [DB]2 [Ge]2 [Ge]2 [Fd]2 | %3
w: 1.~Beau- ti- ful, won- der- ful|morn- ing!|Gleam- ing with prom- ise so|
w: 2.~Voic- es from Hea- ven seem|call- ing,|Down from the skies bend- ing|
w: 3.~Beau- ti- ful, won- der- ful|dawn- ing,|Joy of the ag- es to|
 [Ec]6- [Ec]4 z2 | [Ec]2 [=D=B]2 [Ec]2 [F_d]2 [FA]2 [_F_B]2 | [Ec]6 [CA]6 | %6
w: fair, *|Sun- light the hill- tops a-|dorn- ing,|
w: low; *|“Fear not, tho’ sha- dows are|fall- ing,|
w: be, *|Vi- sions of life’s bless- èd|morn- ing,|
 [B,G]2 [EG]2 [GB]2 [F=d]2 [Ac]2 [Ad]2 | [Ge]6- [Ge]4 z2 | [Bd]2 [Gd]2 [Fd]2 [Ed]2 [Fd]2 [Gd]2 | %9
w: Glad- ness and light ev- ery-|where. *|Sweet- ly the joy- bells are|
w: Ev- ery- thing Je- sus doth|know.” *|Love like a foun- tain is|
w: Thro’ the grave’s por- tals we|see. *|Sweet- er will grow the glad|
 c6 [Ec]6 | [Bd]2 [Gd]2 [Fd]2 [Ec]2 [Fd]2 [DB]2 | [CA]6- [CA]4 z2 | %12
w: ring- ing,|Out thro’ the frag- rance and|bloom; *|
w: flow- ing|Forth from the heart kind and|true; *|
w: sto- ry|While the long ag- es pass|by, *|
 [CA]2 [DB]2 [=D=B]2 [Ec]2 [Ac]2 [Ge]2 | [Ge]6 [Fd]6 | [Ec]2 [Ec]2 [Ec]2 [Gd]2 [Fd]2 [Gd]2 | %15
w: Na- ture a chor- al is|sing- ing,|Glo- ry en- cir- cles the|
w: Cling to the hand strong and|might- y,|Christ has a- ris- en for|
w: Bring- ing to earth a new|glo- ry,|Reign- eth our king up on|
 [Ac]6- [Ac]4 z2 ||"^Refrain" E2 [EG]2 [GB]2 [Gd]2 [Gc]2 [GB]2 | A6 [CE]6 | %18
w: tomb. *|||
w: you. *|Beau- ti- ful, won- der- ful|morn- ing,|
w: high. *|||
 [CA]2 [CA]2 [CA]2 [=Dc]2 [DB]2 [DA]2 | [Ee]12 | [_Ge]2 [Gf]2 [Ge]2 [Fe]2 [Fd]2 [DF]2 | %21
w: |||
w: Joy- ful His prais- es we|sing;|Beau- ti- ful, won- der- ful|
w: |||
 [Ec]2 [Fd]2 [Ec]2 [DB]6 | [=B,A]2 [B,G]2 [B,F]2 ([CE]2 [Ae]4) | %23
w: ||
w: morn- ing of love,|Je- sus doth live, *|
w: ||
 !>![Ge]2 !>![Ge]2 !>![EG]2 !>![EA]6 |] %24
w: |
w: Je- sus our king.|
w: |
V:2
 x12 | x12 | x12 | x12 | x12 | x12 | x12 | x12 | x12 | (A2 C2 F2) x6 | x12 | x12 | x12 | x12 | %14
 x12 | x12 || E2 x10 | A6 x6 | x12 | x12 | x12 | x12 | x12 | x12 |] %24
V:3
 [A,,A,]6 [D,A,]6 | A,6 A,6 | [E,G,]6 E,6 | A,6 [A,,A,]4 z2 | [A,,A,]6 [D,A,]6 | A,6 A,6 | %6
 [B,,E,]6 [B,,B,]6 | B,6 [E,B,]4 z2 | [E,G,]6 [E,G,]6 | [A,,A,]6 [A,,A,]6 | [E,G,]6 [E,G,]6 | %11
 [A,,A,]6- [A,,A,]4 z2 | [A,,A,]6 [A,,A,]6 | [D,A,]6 [D,A,]6 | [E,A,]6 [E,B,]6 | %15
 [A,,A,]6- [A,,A,]4 z2 || [E,G,]2 [E,B,]2 [E,D]2 [E,F]2 [E,E]2 [E,D]2 | [A,C]6 [A,,A,]6 | %18
 [F,A,]2 [F,A,]2 [F,A,]2 [B,,A,]2 [B,,B,]2 [B,,B,]2 | ([E,G,]4 [F,A,]2 [G,B,]2 [A,C]2 [B,D]2) | %20
 [A,C]2 [A,C]2 [A,C]2 [D,A,]2 [D,A,]2 [D,A,]2 | [F,=A,]2 [F,A,]2 [F,A,]2 [B,,F,]6 | %22
 [=D,F,]2 [D,G,]2 [D,A,]2 (A,2 C4) | !>![E,D]2 !>![E,D]2 !>![E,D]2 !>![A,,C]6 |] %24
V:4
 x12 | (A,,2 C,2 E,2) A,6 | x6 E,6 | A,2 E,2 C,2 x6 | x12 | (A,,2 C,2 E,2) x6 | x12 | %7
 E,2 G,2 B,2 x6 | x12 | x12 | x12 | x12 | x12 | x12 | x12 | x12 || x12 | x12 | x12 | x12 | x12 | %21
 x12 | x6 E,4 x2 | x12 |] %24

